newicons/laos_health.svg

<?xml version="1.0" encoding="UTF-8"?><svg id="a" xmlns="http://www.w3.org/2000/svg" viewBox="0 0 48 48"><defs><style>.b{fill:none;stroke:rgba(255,255,255,.976);stroke-linecap:round;stroke-linejoin:round;}</style></defs><path class="b" d="M24.5746,13.0998h5.1389M24.5746,20.5906h5.1389M24.5746,18.0937h5.1389M24.5746,15.5967h5.1389M24.5736,7.8459h5.1399v2.6639h-5.1399v-2.6639ZM18.9498,12.4058v.719c0,.619.498,1.144,1.118,1.144h.957c.6158-.0017,1.1163.4962,1.118,1.112,0,.0017,0,.0033,0,.005v1.644M16.3648,12.5168v.608c0,.619-.499,1.144-1.118,1.144h-.958c-.6158-.0017-1.1163.4962-1.118,1.112,0,.0017,0,.0033,0,.005v1.644M19.6577,10.3639c0,1.5011-.9169,2.7179-2.0479,2.7179h0c-1.1307-.0007-2.0469-1.2174-2.0469-2.7179s.9163-2.7172,2.0469-2.7179c1.131,0,2.0479,1.2169,2.0479,2.7179h0ZM34.7243,18.3726h4.1739c1.858,0,3.8569,1.565,3.3539,3.3529l-4.8569,17.2595M18.7988,26.1634v3.9199h-3.9219v5.3749h3.9219v3.9189h5.3749v-3.9199h3.9199v-5.3739h-3.9199v-3.9199h-5.3749ZM32.0764,7.7359h2.6479v15.7946M10.809,20.0346V5.5h21.2674v18.0295M15.8428,20.0336h-7.9378c-1.2316-.0033-2.2326.9924-2.2359,2.2239,0,.0043,0,.0087,0,.013v17.9935c-.0033,1.2316.9924,2.2326,2.2239,2.2359.004,0,.008,0,.012,0h27.2533c1.2316.0033,2.2326-.9924,2.2359-2.2239,0-.004,0-.008,0-.012v-14.4986c.0033-1.2316-.9924-2.2326-2.2239-2.2359-.004,0-.008,0-.012,0h-16.2456l-3.0699-3.4959Z"/></svg>

<svg xmlns="http://www.w3.org/2000/svg" xml:space="preserve" width="48" height="48"><path fill="none" stroke="#fff" stroke-linecap="round" stroke-linejoin="round" stroke-opacity=".976" d="M24.576 13.099h5.139m-5.139 7.491h5.139m-5.139-2.497h5.139m-5.139-2.497h5.139m-5.14-7.751h5.14v2.664h-5.14zm-5.624 4.56v.719c0 .619.498 1.144 1.118 1.144h.957a1.115 1.115 0 0 1 1.118 1.117v1.644m-5.778-4.513v.608c0 .619-.499 1.144-1.118 1.144h-.958a1.115 1.115 0 0 0-1.118 1.117v1.644m6.487-6.666a2.048 2.718 0 0 1-2.048 2.718 2.048 2.718 0 0 1-2.047-2.718 2.048 2.718 0 0 1 2.047-2.718 2.048 2.718 0 0 1 2.048 2.718zm15.067 8.009H38.9c1.858 0 3.857 1.565 3.354 3.353l-4.857 17.26M18.8 26.163v3.92h-3.922v5.375H18.8v3.919h5.375v-3.92h3.92v-5.374h-3.92v-3.92zM32.078 7.735h2.648V23.53M10.81 20.034V5.499h21.268v18.03m-16.234-3.496H7.906A2.23 2.23 0 0 0 5.67 22.27v17.994A2.23 2.23 0 0 0 7.906 42.5H35.16a2.23 2.23 0 0 0 2.236-2.236V25.765a2.23 2.23 0 0 0-2.236-2.236H18.914z"/></svg>
